X:1
T:Christmas Carol, CMD
T:Christmas Carol, CMD
T:A. Kreismann, 1869
T:Public Domain Courtesy of the Cyber Hymnal™
C:A. Kreismann, 1869
Z:Public Domain
Z:Courtesy of the Cyber Hymnal™
%%score ( 1 2 ) ( 3 4 )
L:1/8
Q:1/4=112
M:4/4
K:A
V:1 treble 
V:2 treble 
V:3 bass 
V:4 bass 
V:1
 [CE]2 | [CE]2 [A,C]2 [DF]2 [CE]2 | [^B,^D]3 [CE] [A,C]2 [CEA]2 | [FAd]2 [EAc]2 [CEA]2 [CE]2 | %4
 ([DF]4 [CE]2) [CE]2 | [CE]2 [B,D]2 [DF]2 [CE]2 | [^B,^D]3 [CE] [CFA]2 [FAc]2 | %7
 [GB]2 [B,E]2 [CF]2 [B,^DB]2 | [B,E]4 z2 E2 | F2 E2 [EGd]2 [EAc]2 | B3 c B2 [EB]2 | %11
 [Ec]2 [EA]2 [FA]2 [DF]2 | ([DF]4 [CE]2) [CE]2 | [CE]2 [B,D]2 [DF]2 [CE]2 | %14
 [^B,^D]3 [CE] [CA]2 [Ec]2 | [=Ge]2 [Fd]2 [Ec]2 [DB]2 | [CA]4 z2 |] %17
V:2
 x2 | x8 | x8 | x8 | x8 | x8 | x8 | x8 | x8 | x8 | E6 x2 | x8 | x8 | x8 | x8 | x8 | x6 |] %17
V:3
 z2 | [A,,A,]2 z2 [A,,E,G,]2 z2 | [A,,A,]6 A,2 | A,,2 A,2 A,,2 A,2 | A,6 A,2 | %5
 [E,G,]2 z2 [G,,E,]2 z2 | [A,,A,]4 [F,,F,]2 [^D,,^D,]2 | [C,,E,]2 [G,,G,]2 [A,,A,]2 [B,,A,]2 | %8
 [E,G,]4 z2 [E,G,]2 | [E,A,]2 [E,G,]2 [E,B,]2 [E,A,]2 | G,3 A, G,2 [E,G,]2 | %11
 [A,,A,]2 [C,A,]2 [D,A,]2 [F,A,]2 | A,6 [A,,A,]2 | [E,G,]2 z2 [G,,E,]2 z2 | [A,,A,]6 [A,,A,]2 | %15
 [C,A,]2 [D,A,]2 [E,A,]2 [E,G,]2 | [A,,A,]4 z2 |] %17
V:4
 x2 | x8 | x8 | x8 | (D,4 A,,2) x2 | x8 | x8 | x8 | x8 | x8 | E,6 x2 | x8 | x8 | x8 | x8 | x8 | %16
 x6 |] %17

